svg/RightHanded/all-scroll.svg

<?xml version="1.0" encoding="UTF-8" standalone="no"?>
<!-- Created with Inkscape (http://www.inkscape.org/) -->

<svg
   xmlns:dc="http://purl.org/dc/elements/1.1/"
   xmlns:cc="http://creativecommons.org/ns#"
   xmlns:rdf="http://www.w3.org/1999/02/22-rdf-syntax-ns#"
   xmlns:svg="http://www.w3.org/2000/svg"
   xmlns="http://www.w3.org/2000/svg"
   xmlns:xlink="http://www.w3.org/1999/xlink"
   version="1.0"
   width="500"
   height="500"
   viewBox="0 0 1000 1000"
   id="page"
   xml:space="preserve"><metadata
     id="metadata14"><rdf:RDF><cc:Work
         rdf:about=""><dc:format>image/svg+xml</dc:format><dc:type
           rdf:resource="http://purl.org/dc/dcmitype/StillImage" /><dc:title></dc:title></cc:Work></rdf:RDF></metadata><defs
     id="defs38"><linearGradient
       id="linearGradient2178"><stop
         id="stop2180"
         style="stop-color:#999999;stop-opacity:1"
         offset="0" /><stop
         id="stop2182"
         style="stop-color:#555555;stop-opacity:1"
         offset="1" /></linearGradient><filter
       x="-0.26190186"
       y="-0.2214786"
       width="1.5238037"
       height="1.4429572"
       color-interpolation-filters="sRGB"
       id="filter3797"><feGaussianBlur
         stdDeviation="67.239057"
         id="feGaussianBlur3799" /></filter><linearGradient
       x1="231.98375"
       y1="128.61263"
       x2="231.98375"
       y2="755.79596"
       id="linearGradient3001"
       xlink:href="#linearGradient2178"
       gradientUnits="userSpaceOnUse" /></defs><path
     d="m 316.88575,621.08694 c 1.5816,-27.6804 -12.8664,-109.9128 -20.4,-139.2 -10.8,-67.20001 -7.9097,-139.04517 -5.5097,-179.84516 4.8,-26.4 40.1053,-62.11741 64.1677,-56.47741 46.8,7.2 41.8065,65.25159 57.4065,122.85159 6,16.8 7.5355,66.67098 9.9343,101.47098 0,-37.2 15.2657,-202.27096 26.0657,-234.67096 10.8,-21.6 37.6512,-38.94962 60,-37.20002 19.29,1.5108 51.1992,27.67082 62.4,62.40002 4.2,13.0212 -16.9277,217.56376 -26.0669,241.87096 11.2692,-36.8844 58.4669,-189.07098 112.4669,-210.67096 43.2,0 57.6372,30.89998 60,71.99998 1.0536,18.3324 -46.5077,187.68738 -53.6669,204.67098 8.2956,-9.3624 22.8024,-57.6 49.2024,-93.6 24,-38.4 65.9614,-27.85807 79.1614,-14.65807 21.6,26.4 22.8386,60.25807 -19.1638,157.45807 2.4,21.6 -2.7744,84.8508 -15.6,123.6 -7.6452,23.094 -27.6492,64.2252 -45.6,96 -11.514,20.3808 -26.5404,39.1188 -44.4,54 -24.7548,20.628 -50.286,30.5364 -80.76,33.156 -36.726,3.1596 -73.9968,3.426 -110.6484,-1.7976 -48.5436,-6.9192 -92.5464,-23.6208 -133.4964,-53.9088 -45.9108,-33.9576 -83.88,-106.692 -109.7052,-150.9648 -27.9744,-47.9592 -31.656,-77.9268 -28.0584,-112.3752 2.3712,-22.6992 -19.7292,-70.5096 -12.5292,-93.3096 19.2,-26.4 94.8,-45.6 116.4,28.8"
     id="path1409-8"
     style="opacity:0.15;fill:#111111;fill-opacity:1;stroke:none;filter:url(#filter3797)" /><path
     d="m 347.19106,491.27316 c 1.318,-23.067 -10.722,-91.594 -17,-116 -9,-56 -6.5914,-115.87097 -4.5914,-149.87097 4,-22 33.42112,-51.76451 53.47312,-47.06451 39,6 34.83871,54.37634 47.83871,102.37634 5,14 6.27957,55.55914 8.27857,84.55914 10e-4,-31 12.72143,-168.55914 21.72143,-195.55914 9,-18 31.376,-32.458 50,-31 16.075,1.259 42.666,23.059 52,52 3.5,10.851 -14.10643,181.30314 -21.72243,201.55914 9.391,-30.737 48.72243,-157.55914 93.72247,-175.55914 36,0 48.031,25.75 50,60 0.878,15.277 -38.75643,156.40614 -44.72243,170.55914 6.913,-7.802 19.002,-48 41.002,-78 20,-32 54.96774,-23.21505 65.96774,-12.21505 18,22 19.03226,50.21505 -15.96974,131.21505 2,18 -2.312,70.709 -13,103 -6.371,19.245 -23.041,53.521 -38,80 -9.595,16.984 -22.117,32.599 -37,45 -20.62904,17.19 -41.90504,25.447 -67.30004,27.63 -30.605,2.633 -61.664,2.855 -92.207,-1.498 -40.453,-5.766 -77.122,-19.684 -111.247,-44.924 -38.259,-28.298 -69.9,-88.91 -91.421,-125.804 -23.312,-39.966 -26.38,-64.939 -23.382,-93.646 1.976,-18.916 -16.441,-58.758 -10.441,-77.758 16,-22 79,-38 97,24"
     id="path1409"
     style="opacity:0.75;fill:url(#linearGradient3001);fill-opacity:1;stroke:#000000;stroke-width:20;stroke-linecap:round;stroke-linejoin:round" /><path
     d="m 547.69892,527.95699 c 0,43.01075 -17.68817,94.37634 -17.68817,94.37634"
     id="path1391"
     style="opacity:0.75;fill:none;stroke:#000000;stroke-width:20;stroke-linecap:round;stroke-linejoin:round" /><path
     d="m 624.32258,573.33333 c -1.34409,30.91398 -29,66 -29,66"
     id="path1393"
     style="opacity:0.75;fill:none;stroke:#000000;stroke-width:20;stroke-linecap:round;stroke-linejoin:round" /><path
     d="m 459.32258,527.33333 c 8.06452,30.91398 -3,84 -3,84"
     id="path1395"
     style="opacity:0.75;fill:none;stroke:#000000;stroke-width:20;stroke-linecap:round;stroke-linejoin:round" /></svg>

<?xml version="1.0" encoding="UTF-8" standalone="no"?>
<!-- Created with Inkscape (http://www.inkscape.org/) -->
<svg
   xmlns:svg="http://www.w3.org/2000/svg"
   xmlns="http://www.w3.org/2000/svg"
   xmlns:xlink="http://www.w3.org/1999/xlink"
   version="1.0"
   width="500"
   height="500"
   viewBox="0 0 1000 1000"
   id="page"
   xml:space="preserve"><defs
     id="defs38"><linearGradient
       id="linearGradient2178"><stop
         id="stop2180"
         style="stop-color:#999999;stop-opacity:1"
         offset="0" /><stop
         id="stop2182"
         style="stop-color:#555555;stop-opacity:1"
         offset="1" /></linearGradient><linearGradient
       x1="231.98375"
       y1="128.61263"
       x2="231.98375"
       y2="755.79596"
       id="linearGradient2184"
       xlink:href="#linearGradient2178"
       gradientUnits="userSpaceOnUse" /></defs><path
     d="M 347.19106,491.27316 C 348.50906,468.20616 336.46906,399.67916 330.19106,375.27316 C 321.19106,319.27316 323.59966,259.40219 325.59966,225.40219 C 329.59966,203.40219 359.02078,173.63768 379.07278,178.33768 C 418.07278,184.33768 413.91149,232.71402 426.91149,280.71402 C 431.91149,294.71402 433.19106,336.27316 435.19006,365.27316 C 435.19106,334.27316 447.91149,196.71402 456.91149,169.71402 C 465.91149,151.71402 488.28749,137.25602 506.91149,138.71402 C 522.98649,139.97302 549.57749,161.77302 558.91149,190.71402 C 562.41149,201.56502 544.80506,372.01716 537.18906,392.27316 C 546.58006,361.53616 585.91149,234.71402 630.91153,216.71402 C 666.91153,216.71402 678.94253,242.46402 680.91153,276.71402 C 681.78953,291.99102 642.1551,433.12016 636.1891,447.27316 C 643.1021,439.47116 655.1911,399.27316 677.1911,369.27316 C 697.1911,337.27316 732.15884,346.05811 743.15884,357.05811 C 761.15884,379.05811 762.1911,407.27316 727.1891,488.27316 C 729.1891,506.27316 724.8771,558.98216 714.1891,591.27316 C 707.8181,610.51816 691.1481,644.79416 676.1891,671.27316 C 666.5941,688.25716 654.0721,703.87216 639.1891,716.27316 C 618.56006,733.46316 597.28406,741.72016 571.88906,743.90316 C 541.28406,746.53616 510.22506,746.75816 479.68206,742.40516 C 439.22906,736.63916 402.56006,722.72116 368.43506,697.48116 C 330.17606,669.18316 298.53506,608.57116 277.01406,571.67716 C 253.70206,531.71116 250.63406,506.73816 253.63206,478.03116 C 255.60806,459.11516 237.19106,419.27316 243.19106,400.27316 C 259.19106,378.27316 322.19106,362.27316 340.19106,424.27316"
     id="path1409"
     style="fill:url(#linearGradient2184);fill-opacity:1;stroke:#000000;stroke-width:20;stroke-linecap:round;stroke-linejoin:round" /><path
     d="M 547.69892,527.95699 C 547.69892,570.96774 530.01075,622.33333 530.01075,622.33333"
     id="path1391"
     style="opacity:1;fill:none;stroke:#000000;stroke-width:20;stroke-linecap:round;stroke-linejoin:round" /><path
     d="M 624.32258,573.33333 C 622.97849,604.24731 595.32258,639.33333 595.32258,639.33333"
     id="path1393"
     style="opacity:1;fill:none;stroke:#000000;stroke-width:20;stroke-linecap:round;stroke-linejoin:round" /><path
     d="M 459.32258,527.33333 C 467.3871,558.24731 456.32258,611.33333 456.32258,611.33333"
     id="path1395"
     style="opacity:1;fill:none;stroke:#000000;stroke-width:20;stroke-linecap:round;stroke-linejoin:round" /></svg>
